X:1
T:Golliher's Folic -- Jig
R:jig
B:Ryan's Mammoth Collection
N: 86 443
Z: Contributed by Ray Davies,  ray:davies99.freeserve.co.uk
M:6/8
L:1/8
K:D
uA,|\
D>ED F>ED | A>BA c>AG | ABA GAG | FAF GEC |
D>ED F>ED | A>BA c>AG | AGF EDE | (FD).D D2:|
|:uA|\
d2e f>ed | (f2g) a>fd | .c.e(f g).e.c | gec .g.e(c |
d).e.d .d.e(d | c).e.c cAG | A>GF E>DE | (FD).D D2:|
